X:53
T:T031C- Yemon o Knock
S:O'Farrell's Pocket Companion, I (1805)
Q:1/4=60
L:1/4
M:3/4
K:G
D/E/|GB (AA/G/)|Bgf3/4d/4|e/d/4B/4~AB|(A/G/)GF|E/D/4E/4 D3/2 E/|\
GBA3/4G/4|Bgf3/4d/4|e/d/4B/4~AB|A3/4G/8A/8G3/2||d/e/4f/4g(f/e/)|\
a3/4f/4fe/d/4B/4|d2g/f/|e3/4d/4 B/4A/4G/4E/4 (G/4A/4)B/4d/4|\
(e3/4f/4) (g3/4a/4) (g/4a/4b/)|D3/4E/4GB|A/G/Bg|\
f/d/ (e/4d/4)(B/4A/4) ~A|(G/4A/4)B/4d/4 (e/4d/4)B/4G/4AG|G2|]

